X:1
T:Sonata for Flute and Violin
T:Dolce
T:Sonata for Flute and Violin, TWV 40:111
T:Composed by: Telemann, Georg Philipp Edited by: Rarus 
T:Dolce
C:Telemann, Georg Philipp
%%score 1 2
L:1/8
Q:1/4=45
M:4/4
K:G
V:1 treble nm="Flute" snm="Fl."
V:2 treble nm="Violin" snm="Vln."
V:1
"^\n""^Dolce" B/>c/ | dddg"^+" (f/>e/)d z (A/>B/) | c(a/g/) (f/e/)(d/c/)"^+" (B/>A/)G z d | %3
 eg (e/>d/)(c/>e/) (d/B/G/B/) dd | eg (e/>d/)(c/>e/) d(B/>c/) (d/>c/)(B/>d/) | %5
 cB/>A/ B>c Ad/^c/ d2- | d/g/e/B/"^+" ^c>d d/A/d/e/ f/d/f/g/ | a!courtesy!=ccc"^+" cB z =f | %8
 (e/d/c/)a/ (g/e/)(=f/d/) (c/>B/)c z ^c | (d/>^c/)d z ^d (e/d/)(e/g/) (f/g/)(a/f/) | %10
 (^d/>^c/)B z f (g/>e/)B z g | (f/>^d/) B/d/ f/^a/b/=a/ g/f/e/f/"^+" d>e | e/g/f/e/ d/c/B/c/ dddg | %13
"^+" (f/>e/)d z/ c/B/A/ B/d/g/f/ e/d/c/B/ | Ac/B/ c2- c/A/B/e/ (d/B/)(c/A/) | %15
 (G/F/E/)d/ c/B/A/G/"^+" (f/>e/)d z/ c'/b/a/ | b/f/g/e/"^+" f>g g2 z2 |] %17
V:2
 z | z/ G,/B,/D/ G/D/B,/G,/ z/ D/F/A/ d/A/F/D/ | z/ D/F/A/ d/A/F/D/ z/ G/B/d/ g/d/B/G/ | %3
 C/c/e/c/ C/c/e/c/ G,/G/B/G/ G,/G/B/G/ | C/c/e/c/ C/c/e/c/ B,/B/d/B/ B,/B/d/B/ | %5
 A,/A/D/F/ G,/G/C/A/ D2 z/ a/f/d/ | B/b/g/G/ AA, D2 z2 | z/ D/F/A/ d/A/F/D/ z/ G/D/B,/ G,/B,/D/G/ | %8
 C/D/E/=F/ GG, z/ C/E/C/ G/E/A,/G/ | %9
 (^F/E/F/)!wedge!D/ A/F/B,/A/ (G/F/G/)!wedge!E/ (c/B/c/)!wedge!A/ | %10
 z/ B,/^D/F/ B/F/D/B,/ z/ B,/E/G/ B/G/E/B,/ | z/ B,/^D/F/ B/F/D/B,/ E/F/G/A/ BB, | %12
 !wedge!E/(B/A/G/ F/E/D/C/ B,/)G,/B,/D/ G/D/B,/G,/ | z/ D/F/A/ d/D/E/F/ G/F/E/G/ c/B/A/G/ | %14
 D2 z/ A/F/A/ D/F/G/C/ D/(g/f/)!wedge!c/ | (B/A/G/)!wedge!F/ E/D/C/E/ z/ D/F/A/ d/D/E/F/ | %16
 G/A/B/c/ dD G,2 z2 |] %17

